!!!!SEGMENT: Sil2005-In_illo_tempore.krn
!!!id: Sil2005
!!!AGN: Motet
!!!SCT: Lowinsky (1968)
!!!voices: 4
!!!COM: Andreas de Silva
!!!OTL: In illo tempore
**kern	**kern	**kern	**kern
*part4	*part3	*part2	*part1
*staff4	*staff3	*staff2	*staff1
*I"Bassus	*I"Tenor	*I"Altus	*I"Superius
*I'B	*I'T	*I'A	*I'S
*clefF4	*clefGv2	*clefGv2	*clefG2
*k[b-]	*k[b-]	*k[b-]	*k[b-]
*F:	*F:	*F:	*F:
*M2/1	*M2/1	*M2/1	*M2/1
*met(C|)	*met(C|)	*met(C|)	*met(C|)
!!section: Prima pars: In illo tempore
!!!OMD: Prima pars: In illo tempore
=1	=1	=1	=1
0r	0r	0r	0cc
=2	=2	=2	=2
0r	0r	0c	1cc
.	.	.	1a
=3	=3	=3	=3
0c	0r	1c	1g
.	.	1A	1f
=4	=4	=4	=4
1c	0c	1F	0cc
1A	.	1F	.
=5	=5	=5	=5
1F	1c	[0f	1r
1F	1A	.	[1cc
=6	=6	=6	=6
0c	1F	1.f]	2cc]
.	.	.	2b-y
.	1F	.	1a
.	.	4e	.
.	.	4d	.
=7	=7	=7	=7
0C;	0c;	0e;	0g;
=8	=8	=8	=8
1r	1c	0r	1g
1F	[1c	.	1a
=9	=9	=9	=9
0F	1c]	1f	1cc
.	1A	[1f	[1dd
=10	=10	=10	=10
1D	0d	1f]	2dd]
.	.	.	2cc
[1G	.	1d	2b-y
.	.	.	2a
=11	=11	=11	=11
1G]	0G	1.g	1b-y
[1C	.	.	2.cc
.	.	2f	.
.	.	.	4b-y
=12	=12	=12	=12
1C]	0c	2e	2a
.	.	2d	2g
[1F	.	2c	2f
.	.	2B-y	2e
=13	=13	=13	=13
1F]	1d	2.A	2.d
.	.	4G	4c
1E	1e	[1G	[1c
=14	=14	=14	=14
0D	1.f	2G]	2c]
.	.	4F	4Bni
.	.	4E	4A
.	.	1F	1Bni
.	4e	.	.
.	4d	.	.
=15	=15	=15	=15
[0C	[0e	0G	[0c
=16	=16	=16	=16
0C_	0e_	1r	0c]
.	.	1G	.
=17	=17	=17	=17
0C_	0e_	1.c	1r
.	.	.	1g
.	.	2B-y	.
=18	=18	=18	=18
0C]	0e]	1A	1.cc
.	.	1G	.
.	.	.	2b-y
=19	=19	=19	=19
0r	0r	2r	1a
.	.	1f	.
.	.	.	1g
.	.	2e	.
=20	=20	=20	=20
0r	0r	2.d	1f
.	.	4B-y	.
.	.	4c	2e
.	.	4d	.
.	.	4e	2g
.	.	4c	.
=21	=21	=21	=21
1r	1r	2d	4f
.	.	.	4e
.	.	1c	4d
.	.	.	4c
1GG	1G	.	1d
.	.	2Bni	.
=22	=22	=22	=22
1.C	2G	1c	2.c
.	2.A	.	.
.	.	.	4B-y
.	.	1r	2c
.	4G	.	.
2BB-y	[2G	.	[2d
=23	=23	=23	=23
1AA	2G]	1C	4d]
.	.	.	4c
.	2F#i	.	1c
1GG	1G	1D	.
.	.	.	2Bni
=24	=24	=24	=24
1r	1.G	0C	0c
[1G	.	.	.
.	2F	.	.
=25	=25	=25	=25
2G]	2E	1.G	1r
2F	2D	.	.
2E	1C	.	[1g
2D	.	2F	.
=26	=26	=26	=26
1C	1.c	2E	2g]
.	.	2D	2f
[1C	.	1C	2e
.	2B-y	.	2d
=27	=27	=27	=27
2C]	2A	1.c	1c
2BB-y	2G	.	.
2AA	[1F	.	[1cc
2GG	.	2B-y	.
=28	=28	=28	=28
0FF	1F]	2A	2cc]
.	.	2G	2b-y
.	1F	1F	2a
.	.	.	2g
=29	=29	=29	=29
1FF	1A	1c	1f
1AA	1c	1c	1e
=30	=30	=30	=30
0C	1.c	1G	1e
.	.	1G	[1g
.	2B-y	.	.
=31	=31	=31	=31
1D	1A	0d	2g]
.	.	.	2f
1BB-y	1B-y	.	[1f
=32	=32	=32	=32
0C	0G	0c	2f]
.	.	.	4e
.	.	.	4d
.	.	.	2.e
.	.	.	4d
=33	=33	=33	=33
0FF	0F	0A	0f
=34	=34	=34	=34
1r	1r	1r	1r
1C	1enX	1c	1g
=35	=35	=35	=35
1C	1e	1c	1g
1C	1e	1c	1g
=36	=36	=36	=36
1AA	1e	1c	1a
[1C	[1e	[1c	[1g
=37	=37	=37	=37
1C]	1e]	1c]	1g]
[1C	1c	1r	1r
=38	=38	=38	=38
1C]	1.c	1r	0cc
[1F	.	1A	.
.	2B-y	.	.
=39	=39	=39	=39
1F]	1A	0c	1cc
1E	1G	.	1cc
=40	=40	=40	=40
0D	0F	1B-y	0dd
.	.	[1A	.
=41	=41	=41	=41
[0C	0c	1A]	[0ee
.	.	[1G	.
=42	=42	=42	=42
0C_	2r	1G]	0ee]
.	2G	.	.
.	2A	2r	.
.	2G	2G	.
=43	=43	=43	=43
0C_	1c	2A	2r
.	.	2G	2g
.	2r	1c	2a
.	2G	.	2g
=44	=44	=44	=44
0C]	2A	2r	1.cc
.	2G	2G	.
.	[1c	2A	.
.	.	2G	2b-y
=45	=45	=45	=45
0r	2c]	1.c	2a
.	2B-y	.	2g
.	2A	.	2f
.	2G	2B-y	2e
=46	=46	=46	=46
0r	2F	2A	2d
.	2E	2G	2c
.	4D	2F	2d
.	4C	.	.
.	2c	2E	2e
=47	=47	=47	=47
0r	2B-y	2D	2f
.	2.c	2C	2.e
.	.	1G	.
.	4Bni	.	8dL
.	.	.	8cJ
.	4Bni	.	2d
.	4A	.	.
=48	=48	=48	=48
2r	1c	[0C	[0e
2G	.	.	.
2A	2r	.	.
2G	2G	.	.
=49	=49	=49	=49
2c	2A	0C]	1e]
4r	2G	.	.
4G	.	.	.
2A	1c	.	2r
2G	.	.	2g
=50	=50	=50	=50
1.c	0r	2r	2a
.	.	2E	2g
.	.	2F	[1cc
2B-y	.	2G	.
=51	=51	=51	=51
2A	1r	2A	2cc]
2G	.	2B-y	2b-y
2F	2r	1c	2a
2E	2G	.	2g
=52	=52	=52	=52
2D	2B-y	2r	2f
2C	2c	2.c	2e
1G	1G	.	2.d
.	.	4Bni	.
.	.	4Bni	.
.	.	4A	4c
=53	=53	=53	=53
[0C	1.G	0c	1.e
.	8GL	.	2c
.	8F	.	.
.	8E	.	.
.	8DJ	.	.
=54	=54	=54	=54
0C]	0E	0G	0c
=55	=55	=55	=55
1r	1r	1r	1r
[1C	[1c	[1e	[1g
=56	=56	=56	=56
1C]	1c]	1e]	1g]
1C	1c	1e	1g
=57	=57	=57	=57
1AA	1c	1e	1a
1FF	1c	1f	1a
=58	=58	=58	=58
1C	1c	1e	1g
[1F	[1A	[1d	[1f
=59	=59	=59	=59
2F]	2A]	2d]	2f]
2C	2G	2c	2e
[1C	[1G	[1c	[1e
=60	=60	=60	=60
0C]	0G]	0c]	0e]
=61	=61	=61	=61
1C	1c	1e	1g
1C	1c	1e	1g
=62	=62	=62	=62
1C	1c	1e	1g
1E	1c	1e	1g
=63	=63	=63	=63
1D	1d	1f	1a
1D	1d	1f	1b-y
=64	=64	=64	=64
1C	1.enX	1g	1.cc
1C	.	1g	.
.	2d	.	2b-y
=65	=65	=65	=65
1C	1c	1e	1a
1C	1c	1e	1g
=66	=66	=66	=66
1BB-y	1.d	1f	1.b-y
1BB-y	.	1f	.
.	2c	.	2a
=67	=67	=67	=67
0BB-y	1B-y	0d	1g
.	1B-y	.	1f
=68	=68	=68	=68
1AA	1.c	1enX	1a
1C	.	1e	[1g
.	2B-y	.	.
=69	=69	=69	=69
1D	1A	0d	2g]
.	.	.	2f
1BB-y	1B-y	.	[1f
=70	=70	=70	=70
0C	0G	0c	2f]
.	.	.	4e
.	.	.	4d
.	.	.	2.e
.	.	.	4d
=71	=71	=71	=71
0FF	0F	0A	0f
=72	=72	=72	=72
2r	2r	2r	2r
1.FF	1A	1c	1f
.	2A	2c	2f
=73	=73	=73	=73
2F	2A	2A	2d
2E	2G	2c	2e
2D	2A	2d	2f
2GG	2B-y	2d	2g
=74	=74	=74	=74
00Cl	00cl	00Gl	00el
==	==	==	==
*-	*-	*-	*-
!!!system-decoration: [*]
!!!RDF**kern: i = editorial accidental
!!!RDF**kern: l = terminal long
!!!ENC: Benjamin Ory
!!!END: 2021/5/20
!!!EED: Benjamin Ory
!!!EEV: 2021/05/20
!!!YEC: Copyright 2021 Benjamin Ory, All Rights Reserved
!!!ONB: Translated from MusicXML on 2021/05/20
